logos/upstash-icon.svg

<?xml version="1.0" encoding="UTF-8"?>
<svg width="256px" height="341px" viewBox="0 0 256 341" version="1.1" xmlns="http://www.w3.org/2000/svg" preserveAspectRatio="xMidYMid">
    <title>upstash</title>
    <g>
        <path d="M0,298.416784 C56.5542815,354.970323 148.246768,354.970323 204.801032,298.416784 C261.354571,241.86252 261.354571,150.170106 204.801032,93.6158424 L179.200462,119.215688 C221.61634,161.631567 221.61634,230.401059 179.200462,272.816213 C136.785307,315.232092 68.0157428,315.232092 25.5998642,272.816213 L0,298.416784 Z" fill="#00C98D"></path>
        <path d="M51.200362,247.216367 C79.4772765,275.493137 125.323122,275.493137 153.600615,247.216367 C181.877385,218.939598 181.877385,173.093028 153.600615,144.816259 L128.000769,170.416105 C142.139154,184.55449 142.139154,207.477412 128.000769,221.616521 C113.86166,235.754906 90.9387378,235.754906 76.800353,221.616521 L51.200362,247.216367 Z" fill="#00C98D"></path>
        <path d="M256,42.415426 C199.445737,-14.1384753 107.753322,-14.1384753 51.1994207,42.415426 C-5.35485714,98.9696894 -5.35485714,190.662104 51.1994207,247.216367 L76.7989048,221.616521 C34.3841124,179.200643 34.3841124,110.431151 76.7989048,68.0159962 C119.214783,25.6001177 187.984275,25.6001177 230.39943,68.0159962 L256,42.415426 Z" fill="#00C98D"></path>
        <path d="M204.800308,93.6158424 C176.523538,65.3390727 130.676245,65.3390727 102.399475,93.6158424 C74.1219813,121.893336 74.1219813,167.739181 102.399475,196.015951 L127.999321,170.416105 C113.860936,156.27772 113.860936,133.354797 127.999321,119.215688 C142.137706,105.077304 165.060629,105.077304 179.199738,119.215688 L204.800308,93.6158424 Z" fill="#00C98D"></path>
        <path d="M256,42.415426 C199.445737,-14.1384753 107.753322,-14.1384753 51.1994207,42.415426 C-5.35485714,98.9696894 -5.35485714,190.662104 51.1994207,247.216367 L76.7989048,221.616521 C34.3841124,179.200643 34.3841124,110.431151 76.7989048,68.0159962 C119.214783,25.6001177 187.984275,25.6001177 230.39943,68.0159962 L256,42.415426 Z" fill-opacity="0.4" fill="#FFFFFF"></path>
        <path d="M204.800308,93.6158424 C176.523538,65.3390727 130.676245,65.3390727 102.399475,93.6158424 C74.1219813,121.893336 74.1219813,167.739181 102.399475,196.015951 L127.999321,170.416105 C113.860936,156.27772 113.860936,133.354797 127.999321,119.215688 C142.137706,105.077304 165.060629,105.077304 179.199738,119.215688 L204.800308,93.6158424 Z" fill-opacity="0.4" fill="#FFFFFF"></path>
    </g>
</svg>

<svg preserveAspectRatio="xMidYMid" viewBox="0 0 256 341" xmlns="http://www.w3.org/2000/svg">
  <path fill="#00C98D" d="M0 298.417c56.554 56.553 148.247 56.553 204.801 0 56.554-56.554 56.554-148.247 0-204.801l-25.6 25.6c42.415 42.416 42.415 111.185 0 153.6-42.416 42.416-111.185 42.416-153.601 0L0 298.416Z"/>
  <path fill="#00C98D" d="M51.2 247.216c28.277 28.277 74.123 28.277 102.4 0 28.277-28.276 28.277-74.123 0-102.4l-25.6 25.6c14.14 14.138 14.14 37.061 0 51.2-14.138 14.139-37.061 14.139-51.2 0l-25.6 25.6Z"/>
  <path fill="#00C98D" d="M256 42.415c-56.554-56.553-148.247-56.553-204.8 0-56.555 56.555-56.555 148.247 0 204.801l25.599-25.6c-42.415-42.415-42.415-111.185 0-153.6 42.416-42.416 111.185-42.416 153.6 0L256 42.416Z"/>
  <path fill="#00C98D" d="M204.8 93.616c-28.276-28.277-74.124-28.277-102.4 0-28.278 28.277-28.278 74.123 0 102.4l25.6-25.6c-14.14-14.138-14.14-37.061 0-51.2 14.138-14.139 37.06-14.139 51.2 0l25.6-25.6Z"/>
  <path fill="#FFF" fill-opacity=".4" d="M256 42.415c-56.554-56.553-148.247-56.553-204.8 0-56.555 56.555-56.555 148.247 0 204.801l25.599-25.6c-42.415-42.415-42.415-111.185 0-153.6 42.416-42.416 111.185-42.416 153.6 0L256 42.416Z"/>
  <path fill="#FFF" fill-opacity=".4" d="M204.8 93.616c-28.276-28.277-74.124-28.277-102.4 0-28.278 28.277-28.278 74.123 0 102.4l25.6-25.6c-14.14-14.138-14.14-37.061 0-51.2 14.138-14.139 37.06-14.139 51.2 0l25.6-25.6Z"/>
</svg>
